X:44
T: Campbell River
R: jig
M: 6/8
G: Blazing Cornet
L: 1/8
K: Bmin
|:Bc|"Bm"dcd "A"c2c|"Bm"BFE DB,C|DEF Bcd|"A"cAA ABc|
"Bm"dcd "A"cBc|"bm"BFE DEF |Bcd "A"cAc|"Bm"B3-B:|
|:Bc|"Bm"dcd BAB|"A"ede ABc |"Bm"dcd Bcd|"A"e3 cde|
"D"fed "Bm"BFE|"G"DB,C "D"DEF|"Bm"Bcd "A"cAc|"Bm"B3-B:|]
